X: 30416
T: Old Tom Of Oxford
R: reel
M: 4/4
K: Gmajor
GABc d2 ef|g2 d2 c2 B2|A4 GABc|d2 g2 f2 g2|
a2 fe d2 ef|g2 d2 c2 B2|A4 G4|g2 d2 c2 B2|A4 G4:|
B2 d2 B2 d2|B2 d2 gfed|c2 e2 c2 e2|c2 e2 gfed|
B2 d2 B2 d2|ddef g4|g2 d2 c2 B2|A4 G4|g2 d2 c2 B2|A4 G4:|
G3 A B2 c2|d4 g4|c4 Bc B2|A4 G4|
G3A B2c2|d4 g4|f4g4|a2 fe d2 ef|
g2 d2 c2 B2|A4 G4|g2 d2 c2 B2|A4 G4||

